X:109
T:Turkish Jigg THO1.109
M:6/8
Z:vmp. Peter Dunk 2012.from a transcription by Fynn Titford-Mock 2006
B:Thompson's Compleat Collection of 200 Favourite Country Dances Vol.I,1758
Q:3/8=100
L:1/8
K:G
BGG BGG|GBd gfg|BGG BGG DEF G3::Bdd Bdd|^ceg fed|afb gea|AB^c d3:|
|:Bcd efg|ABc def|GAB cde|DEF G3::dBG ecA|fdf g3|ecA dBG|DEF G3:|

